X: 14
T:High Reach Farm
S:Bill Quern Dec 2000
M:3/4
R:Waltz
L:1/8
K:Am
|"Am"E2 e2e2|f2 e2d2|c2B2A2|"F"F6|"Am"E2A2B2|c4d2|"F"e2d2c2|"G"B6|!
|"Am"E2 e2e2|f2 e2d2|c2B2A2|"F"F6|"Am"E2A2B2|c4d2|"E7"e2c2B2|"Am"A6||!
"C"g6|g2f2e2|"D7"d2c2d2|"E7"e6|"Am"a6|a2b2a2|a2g2e2|"E7"e4ef|!
"C"g6|g2f2e2|"D7"d2c2d2|"E7"e6|"Am"e2c2a2|"Em7"d2B2G2|"Am"A4AB|A6||!
